images/retail-icon.svg

<?xml version="1.0" encoding="UTF-8"?>
<svg width="154px" height="127px" viewBox="0 0 154 127" version="1.1" xmlns="http://www.w3.org/2000/svg" xmlns:xlink="http://www.w3.org/1999/xlink">
    <!-- Generator: Sketch 61.2 (89653) - https://sketch.com -->
    <title>store</title>
    <desc>Created with Sketch.</desc>
    <g id="Page-1" stroke="none" stroke-width="1" fill="none" fill-rule="evenodd">
        <g id="Desktop-HD" transform="translate(-643.000000, -2276.000000)" fill="#4E2164" fill-rule="nonzero">
            <g id="segments" transform="translate(103.000000, 2072.000000)">
                <g id="store" transform="translate(540.000000, 204.000000)">
                    <path d="M149.576702,29.4183594 L133.449732,3.72070313 C132.008493,1.41386719 129.449051,0 126.715667,0 L26.325902,0 C23.5925173,0 21.0330753,1.41386719 19.5918361,3.72070313 L3.46486646,29.4183594 C-4.85953234,42.6888672 2.5206063,61.1435547 18.07605,63.2519531 C19.1942528,63.4007813 20.3373046,63.4751953 21.4803564,63.4751953 C28.8356461,63.4751953 35.3460714,60.2505859 39.8188827,55.2648438 C44.291694,60.2505859 50.8269683,63.4751953 58.157409,63.4751953 C65.5126987,63.4751953 72.023124,60.2505859 76.4959353,55.2648438 C80.9687466,60.2505859 87.5040209,63.4751953 94.8344616,63.4751953 C102.189751,63.4751953 108.700177,60.2505859 113.172988,55.2648438 C117.670648,60.2505859 124.181073,63.4751953 131.511514,63.4751953 C132.679415,63.4751953 133.797618,63.4007813 134.915821,63.2519531 C150.520962,61.1683594 157.92595,42.7136719 149.576702,29.4183594 L149.576702,29.4183594 Z M131.561212,71.4375 C129.076317,71.4375 126.616271,71.0654297 124.230771,70.4949219 L124.230771,95.25 L28.8107971,95.25 L28.8107971,70.4949219 C26.4252978,71.040625 23.9652516,71.4375 21.4803564,71.4375 C19.9894193,71.4375 18.4736332,71.3382813 17.0075451,71.1398438 C15.6160038,70.9414063 14.2493115,70.6189453 12.932317,70.246875 L12.932317,119.0625 C12.932317,123.45293 16.4857171,127 20.8839816,127 L132.207285,127 C136.605549,127 140.158949,123.45293 140.158949,119.0625 L140.158949,70.246875 C138.817106,70.64375 137.475263,70.9662109 136.083721,71.1398438 C134.567935,71.3382813 133.076998,71.4375 131.561212,71.4375 Z" id="Shape"></path>
                </g>
            </g>
        </g>
    </g>
</svg>

<svg width="154" height="127" xmlns="http://www.w3.org/2000/svg"><path d="M149.577 29.418L133.45 3.721A7.958 7.958 0 00126.716 0H26.326a7.958 7.958 0 00-6.734 3.72L3.465 29.419c-8.325 13.27-.944 31.726 14.611 33.834a25.87 25.87 0 003.404.223c7.356 0 13.866-3.224 18.339-8.21 4.473 4.986 11.008 8.21 18.338 8.21 7.356 0 13.866-3.224 18.339-8.21 4.473 4.986 11.008 8.21 18.338 8.21 7.356 0 13.866-3.224 18.339-8.21 4.498 4.986 11.008 8.21 18.339 8.21 1.167 0 2.286-.074 3.404-.223 15.605-2.084 23.01-20.538 14.66-33.834zm-18.016 42.02c-2.485 0-4.945-.373-7.33-.943V95.25H28.81V70.495c-2.386.546-4.846.942-7.33.942a33.65 33.65 0 01-4.473-.297c-1.392-.199-2.759-.521-4.076-.893v48.816c0 4.39 3.554 7.937 7.952 7.937h111.323a7.936 7.936 0 007.952-7.938V70.248c-1.342.397-2.684.72-4.075.893a34.617 34.617 0 01-4.523.297z" fill="#4E2164"/></svg>
